src/assets/elements/copy-to-clipboard-element.svg

<?xml version="1.0" encoding="UTF-8" standalone="no"?>
<svg
   width="20"
   height="20"
   version="1.1"
   viewBox="0 0 5.2915 5.2915"
   id="svg1696"
   sodipodi:docname="copy-to-clipboard-element.svg"
   inkscape:version="1.2 (dc2aeda, 2022-05-15)"
   xmlns:inkscape="http://www.inkscape.org/namespaces/inkscape"
   xmlns:sodipodi="http://sodipodi.sourceforge.net/DTD/sodipodi-0.dtd"
   xmlns="http://www.w3.org/2000/svg"
   xmlns:svg="http://www.w3.org/2000/svg">
  <defs
     id="defs1700" />
  <sodipodi:namedview
     id="namedview1698"
     pagecolor="#ffffff"
     bordercolor="#666666"
     borderopacity="1.0"
     inkscape:pageshadow="2"
     inkscape:pageopacity="0.0"
     inkscape:pagecheckerboard="true"
     showgrid="false"
     inkscape:zoom="41.1"
     inkscape:cx="8.1265207"
     inkscape:cy="9.6472019"
     inkscape:window-width="1390"
     inkscape:window-height="905"
     inkscape:window-x="1975"
     inkscape:window-y="274"
     inkscape:window-maximized="0"
     inkscape:current-layer="svg1696"
     inkscape:showpageshadow="2"
     inkscape:deskcolor="#d1d1d1" />
  <path
     id="rect1129"
     style="fill:#ffffff;stroke:#5c5470;stroke-width:0.264575;stroke-linecap:round"
     d="M 1.5817331,3.6419151 H 0.82795513 V 0.86735016 H 3.1488308 V 1.3037594"
     sodipodi:nodetypes="ccccc" />
  <path
     id="rect1328"
     style="fill:#ffffff;stroke:#5c5470;stroke-width:0.264575;stroke-linecap:round"
     d="m 1.963879,1.6967397 h 2.3208756 v 2.774565 H 1.963879 Z"
     sodipodi:nodetypes="ccccc" />
  <path
     style="fill:#ffffff;stroke:#5c5470;stroke-width:0.264575px;stroke-linecap:butt;stroke-linejoin:miter;stroke-opacity:1"
     d="M 2.3691719,2.5088051 H 3.6825535"
     id="path1708" />
  <path
     style="fill:#ffffff;stroke:#5c5470;stroke-width:0.264575px;stroke-linecap:butt;stroke-linejoin:miter;stroke-opacity:1"
     d="M 2.3691719,3.1160371 H 2.7903027"
     id="path1710" />
  <path
     style="fill:#ffffff;stroke:#5c5470;stroke-width:0.264575px;stroke-linecap:butt;stroke-linejoin:miter;stroke-opacity:1"
     d="M 2.3691719,3.7232687 H 3.6776973"
     id="path1712" />
</svg>

<svg width="20" height="20" version="1.1" viewBox="0 0 5.2915 5.2915" xmlns="http://www.w3.org/2000/svg">
 <g fill="#fff" stroke="#5c5470">
  <path d="m1.5817 3.6419h-0.75378v-2.7746h2.3209v0.43641" stroke-linecap="round" stroke-width=".26458"/>
  <path d="m1.9639 1.6967h2.3209v2.7746h-2.3209z" stroke-linecap="round" stroke-width=".26458"/>
  <g stroke-width=".26458px">
   <path d="m2.3692 2.5088h1.3134"/>
   <path d="m2.3692 3.116h0.42113"/>
   <path d="m2.3692 3.7233h1.3085"/>
  </g>
 </g>
</svg>
